packages/kaspersky-hexa-ui-icons/src/iconsSVGs/24/GearBroken.svg

<svg width="24" height="24" viewBox="0 0 24 24" fill="none" xmlns="http://www.w3.org/2000/svg">
<path fill-rule="evenodd" clip-rule="evenodd" d="M9.3865 2.87055C9.45438 2.37537 9.87743 2.00635 10.3772 2.00635H13.6216C14.1213 2.00635 14.5442 2.37513 14.6123 2.8701L14.9068 5.01173C15.2381 5.14968 15.5573 5.31043 15.8626 5.49198C16.337 5.77408 16.4931 6.38712 16.2115 6.86175L14.3965 9.92078C14.261 10.149 14.0404 10.3141 13.7832 10.3796C13.526 10.4451 13.2534 10.4056 13.0253 10.27C12.7258 10.0918 12.3763 9.98928 11.9997 9.98928C10.8894 9.98928 9.98924 10.8894 9.98924 11.9998C9.98924 13.1101 10.8894 14.0102 11.9997 14.0102C13.11 14.0102 14.0101 13.1102 14.0102 11.9999C14.0102 11.4476 14.4579 10.9999 15.0102 10.9999H18.5665C18.8318 10.9999 19.0861 11.1053 19.2737 11.2928C19.4612 11.4804 19.5665 11.7347 19.5665 12C19.5665 12.3303 19.5453 12.6562 19.504 12.9761L21.2124 14.3026C21.607 14.6091 21.7149 15.1598 21.4651 15.5925L19.8429 18.4022C19.593 18.835 19.0619 19.0169 18.5991 18.8281L16.5961 18.0109C16.0815 18.4049 15.5144 18.7346 14.9069 18.9876L14.6123 21.1298C14.5442 21.6247 14.1213 21.9935 13.6216 21.9935H10.3772C9.87743 21.9935 9.45438 21.6245 9.3865 21.1293L9.09297 18.9877C8.48534 18.7347 7.91815 18.405 7.40342 18.0109L5.401 18.8279C4.93822 19.0167 4.40711 18.8349 4.1572 18.402L2.53502 15.5923C2.2852 15.1596 2.39309 14.6089 2.78771 14.3025L4.4955 12.9763C4.45419 12.6563 4.43294 12.3302 4.43294 11.9997C4.43294 11.6696 4.45413 11.344 4.49532 11.0244L2.78651 9.69866C2.39161 9.39229 2.28355 8.8414 2.53346 8.40856L4.15564 5.59885C4.40546 5.16615 4.93632 4.98424 5.39902 5.17278L7.40247 5.98912C7.91747 5.5947 8.48501 5.26472 9.09305 5.01156L9.3865 2.87055ZM11.2495 4.00635L10.9073 6.50316L10.3061 6.6949C9.53683 6.94026 8.83913 7.34898 8.25421 7.88132L7.7878 8.3058L5.45175 7.35392L4.70165 8.65314L6.69283 10.1979L6.55933 10.8137C6.47667 11.195 6.43294 11.5916 6.43294 11.9997C6.43294 12.408 6.47673 12.805 6.55951 13.1865L6.69306 13.8021L4.70301 15.3474L5.45311 16.6466L7.78811 15.6939L8.25474 16.1185C8.83954 16.6506 9.53702 17.0591 10.3061 17.3044L10.9072 17.4962L11.2495 19.9935H12.7497L13.0932 17.4959L13.694 17.3042C14.4628 17.0589 15.1601 16.6504 15.7448 16.1184L16.2114 15.6939L18.547 16.6468L19.2971 15.3475L17.3065 13.8018L17.44 13.1863C17.4534 13.1246 17.4658 13.0624 17.4771 12.9999H15.8845C15.4401 14.7309 13.8693 16.0102 11.9997 16.0102C9.78479 16.0102 7.98924 14.2147 7.98924 11.9998C7.98924 9.78483 9.78479 7.98928 11.9997 7.98928C12.3888 7.98928 12.7656 8.04493 13.1223 8.14878L13.9354 6.77835C13.8558 6.7488 13.7752 6.72103 13.6939 6.69508L13.0931 6.50339L12.7497 4.00635H11.2495Z" fill="black"/>
</svg>

<svg xmlns="http://www.w3.org/2000/svg" width="24" height="24" fill="none" viewBox="0 0 24 24"><path fill="#000" fill-rule="evenodd" d="M9.3865 2.8706a1 1 0 0 1 .9907-.8643h3.2444a1 1 0 0 1 .9907.8638l.2945 2.1416c.3313.138.6505.2987.9558.4803.4744.282.6305.8951.3489 1.3697l-1.815 3.059a1 1 0 0 1-1.3712.3492 1.996 1.996 0 0 0-1.0256-.2806c-1.1103 0-2.0105.9001-2.0105 2.0105s.9002 2.0104 2.0105 2.0104 2.0104-.9 2.0105-2.0103c0-.5523.4477-1 1-1h3.5563a1 1 0 0 1 1 1.0001 7.6 7.6 0 0 1-.0625.9761l1.7084 1.3265c.3946.3065.5025.8572.2527 1.2899l-1.6222 2.8097a1 1 0 0 1-1.2438.4259l-2.003-.8172a7.56 7.56 0 0 1-1.6892.9767l-.2946 2.1422a1 1 0 0 1-.9907.8637h-3.2444a1 1 0 0 1-.9907-.8642l-.2935-2.1416a7.56 7.56 0 0 1-1.6896-.9768l-2.0024.817a1 1 0 0 1-1.2438-.4259L2.535 15.5923a1 1 0 0 1 .2527-1.2898l1.7078-1.3262a7.6 7.6 0 0 1-.0626-.9766c0-.3301.0212-.6557.0624-.9753L2.7865 9.6987a1 1 0 0 1-.253-1.2901l1.6221-2.8098a1 1 0 0 1 1.2434-.426l2.0035.8163a7.56 7.56 0 0 1 1.6906-.9775zm1.863 1.1358-.3422 2.4968-.6012.1917a5.56 5.56 0 0 0-2.0519 1.1864l-.4664.4245-2.336-.9519-.7502 1.2992 1.9912 1.5448-.1335.6158a5.6 5.6 0 0 0-.1264 1.186c0 .4083.0438.8053.1266 1.1868l.1336.6156-1.99 1.5453.75 1.2992 2.335-.9527.4666.4246a5.56 5.56 0 0 0 2.0514 1.1859l.6011.1918.3423 2.4973h1.5002l.3435-2.4976.6008-.1917a5.56 5.56 0 0 0 2.0508-1.1858l.4666-.4245 2.3356.9529.7501-1.2993-1.9906-1.5457.1335-.6155a5 5 0 0 0 .0371-.1864h-1.5926c-.4444 1.731-2.0152 3.0104-3.8848 3.0104-2.215 0-4.0105-1.7956-4.0105-4.0105s1.7956-4.0105 4.0105-4.0105a4 4 0 0 1 1.1226.1595l.8131-1.3704a5.5 5.5 0 0 0-.2415-.0833l-.6008-.1917-.3434-2.497z"/></svg>
